X:1
T:The Boyne Water
M:2/4
L:1/16
K:D
E-D| B,2B2B-c dB|A-GF-E D2E-F| G2 FEB-A GF| E3- D B,2|E-D| B,2B2B-cd-B|\
A-GF-E D2E-F| G2E2B-AG-F| E4 E2| A2| A3 B d2c-d|e-dc-B A3 A| B2c-d e2f2|\
e2-d2 B2| c2| d3 e d2c-B|A-GF-E D2E-F| G3 AB-AG-F| E4 E2||
